portal-web/docroot/html/themes/_unstyled/images/common/signal_instance.svg

<svg xmlns="http://www.w3.org/2000/svg" viewBox="0 0 512 512" enable-background="new 0 0 512 512">
    <path id="magic-11-icon" d="M271.54 227.7l-32.337 32.34 190.46 190.458L462 418.16 271.54 227.7zm25.24 70.61l-38.27-38.27 13.03-13.03 38.273 38.272-13.032 13.03zm38.175 92.88H50V61.503h372.142V342.9l-36.13-36.13V140.086H86.13V355.06h212.694l36.13 36.13zm-37.657-184.798c14.427 4.406 25.72 15.698 30.126 30.126 4.406-14.43 15.698-25.72 30.124-30.126-14.426-4.407-25.718-15.697-30.125-30.125-4.405 14.426-15.698 25.72-30.125 30.125zM187.246 250.46c-5.843 19.134-20.82 34.107-39.953 39.952 19.134 5.845 34.11 20.82 39.953 39.953 5.844-19.134 20.82-34.107 39.954-39.953-19.134-5.845-34.11-20.818-39.954-39.952zm33.54-44.068c10.205 3.117 18.192 11.104 21.31 21.31 3.115-10.206 11.102-18.192 21.31-21.31-10.208-3.117-18.194-11.103-21.31-21.31-3.117 10.206-11.105 18.192-21.31 21.31z"/>
</svg>

<?xml version="1.0" encoding="utf-8"?>
<!-- License Agreement at http://iconmonstr.com/license/ -->
<!DOCTYPE svg PUBLIC "-//W3C//DTD SVG 1.1//EN" "http://www.w3.org/Graphics/SVG/1.1/DTD/svg11.dtd">
<svg version="1.1" xmlns="http://www.w3.org/2000/svg" xlink="http://www.w3.org/1999/xlink" x="0px" y="0px" viewBox="0 0 512 512" enable-background="new 0 0 512 512" space="preserve"> <path id="magic-11-icon" d="M271.541,227.701l-32.338,32.338l190.461,190.459L462,418.16L271.541,227.701z M296.781,298.311
l-38.271-38.271l13.031-13.031l38.272,38.273L296.781,298.311z M334.955,391.191H50V61.502h372.142V342.9l-36.13-36.13V140.086
H86.13V355.06h212.694L334.955,391.191z M297.298,206.392c14.427,4.406,25.72,15.698,30.126,30.126
c4.406-14.429,15.698-25.72,30.124-30.126c-14.426-4.407-25.718-15.697-30.125-30.125
C323.018,190.693,311.725,201.986,297.298,206.392z M187.246,250.46c-5.843,19.134-20.819,34.107-39.953,39.952
c19.134,5.845,34.11,20.819,39.953,39.953c5.844-19.134,20.82-34.107,39.954-39.953C208.066,284.567,193.09,269.594,187.246,250.46
L187.246,250.46z M220.786,206.392c10.205,3.117,18.192,11.104,21.31,21.31c3.115-10.206,11.102-18.192,21.309-21.31
c-10.207-3.117-18.193-11.103-21.309-21.311C238.979,195.288,230.991,203.274,220.786,206.392z"></path> </svg>
